img/icon-b.svg

<svg width="182" height="182" viewBox="0 0 182 182" fill="none" xmlns="http://www.w3.org/2000/svg">
<circle cx="91" cy="91" r="83" stroke="#C4C7CC" stroke-width="16"/>
<path d="M132.372 105.105C132.372 113.11 128.731 120.383 122.669 124.391C117.583 127.657 111.999 128.876 102.304 128.876H49L53.8238 114.443H96.9645C102.67 114.443 104.604 114.199 106.669 113.354C109.7 112.022 111.764 108.381 111.764 104.505C111.764 100.986 110.188 97.9543 107.635 96.3776C105.458 95.167 102.67 94.679 97.0869 94.679H60.4306L65.0569 80.8555H94.6655C104.125 80.8555 108.245 78.0683 108.245 71.7713C108.245 68.6181 106.669 65.5868 104.247 64.1323C102.182 62.9123 99.761 62.4337 94.7874 62.4337H71.2133L76.0462 48.0001H103.271C111.52 48.0001 116.973 49.3328 121.092 52.4859C125.7 56.1273 128.61 62.3115 128.61 68.8527C128.61 76.9797 124.856 82.4321 116.607 86.4394C121.824 87.894 124.002 88.8605 126.31 90.8033C130.186 93.8344 132.372 99.0429 132.372 105.105Z" fill="#C4C7CC"/>
</svg>

<svg width="182" height="182" viewBox="0 0 182 182" fill="none" xmlns="http://www.w3.org/2000/svg"><circle cx="91" cy="91" r="83" stroke="#C4C7CC" stroke-width="16"/><path d="M132.372 105.105c0 8.005-3.641 15.278-9.703 19.286-5.086 3.266-10.67 4.485-20.365 4.485H49l4.824-14.433h43.14c5.706 0 7.64-.244 9.705-1.089 3.031-1.332 5.095-4.973 5.095-8.849 0-3.519-1.576-6.55-4.129-8.127-2.177-1.211-4.965-1.699-10.548-1.699H60.43l4.626-13.823h29.608c9.46 0 13.58-2.788 13.58-9.085 0-3.153-1.576-6.184-3.998-7.639-2.065-1.22-4.486-1.698-9.46-1.698H71.213L76.046 48h27.225c8.249 0 13.702 1.333 17.821 4.486 4.608 3.641 7.518 9.826 7.518 16.367 0 8.127-3.754 13.58-12.003 17.586 5.217 1.455 7.395 2.422 9.703 4.364 3.876 3.031 6.062 8.24 6.062 14.302z" fill="#C4C7CC"/></svg>
